X: 25049
T: Maids Of Ardagh, The
R: polka
M: 2/4
K: Dmajor
AB/A/ FA|dA f2|fe/f/ ge|d/c/d/e/ fa|
AB/A/ FA|dA f2|fe/f/ g/e/c/d/|ed d2:|
[K: A]ef/e/ ce|ac e2|ef/e/ dB|fe c2|
ef/e/ ce|ac e2|ef/e/ dB|BA A2:|
af/f/ fa|ef/e/ c2|ef/e/ dB|fe ce|
af/f/ fa|ef/e/ c2|ef/e/ dB|BA A2:|

